X:1
T:Beatus Nicolaus - Anonymous
T:#
%%score [ 1 2 3 4 ]
L:1/8
Q:1/4=200
M:none
K:C
V:1 treble nm="Soprano" snm="S"
V:2 treble nm="Alto" snm="A"
V:3 treble-8 nm="Tenor" snm="T"
V:4 bass nm="Bass" snm="B"
V:1
"^Beatus Nicolaus""^Anonymous" z16 | z8 E8- | E8 G8 | A4 (c6 B2) A4 | (G4 A4) F4 A4- | %5
w: |Be\-|* a-|tus Ni\- * co-|la\- * us, Ni\-|
[M:4/2] A2 G2 (F4 E8 | F2 G2 A2 B2 c4 B4- | B2 A2 A8 ^G4) | A8 z8 | E16- | E16 | G8 A4 c4 | %12
w: * co- la\- *|||us,|be\-||a- tus Ni-|
 B4 (A8 ^G4) | A8 z8 | z4 A4 A4 ^G4 | A8 F8 | E16 | z4 A4 A4 ^G4 | c8 B8 | A4 A4 F4 G4 | %20
w: co- la\- *|us|ad- huc pu-|e- ru-|lus,|ad- huc pu-|e- ru-|lus mul- tis je-|
 A6 A2 A8- | A8 z4 A4 | A4 A4 G8 | F8 E8- | E8 z4 c4 | A4 A4 (c4 B4- | B2 A2 A8) ^G4 | A16- | A16 | %29
w: ju- ni- is,|* mul-|tis je- ju-|ni- is,|* mul-|tis je- ju\- *|* * * ni-|is||
 z4 G8 A4 | B8 c4 (A4- | A4 ^G4)[Q:1/4=196] A8- |[Q:1/4=187] A16 |[Q:1/4=175] A16 | %34
w: ma- ce-|ra- bat cor\-|* * pus.|||
[Q:1/4=170] A16 |] %35
w: |
V:2
 z16 | z16 | z16 | z16 | z8 A,8- |[M:4/2] A,8 C8 | D4 F6 E2 (E4- | E4 D4 E8) | C4 E,4 G,8 | %9
w: ||||Be\-|* a-|tus Ni- co- la\-||us, be- a-|
 A,4 C6 B,2 (A,4- | A,4 ^G,4 A,4 E4-) | (E2 D2 C2 B,2 A,4) F4- | F4 F4 E8 | ^C4 E4 E4 E4 | %14
w: tus Ni- co- la\-||* * * * us, Ni\-|* co- la-|us ad- huc pu-|
 E4 D4 (E8 | F8) z8 | z4 A,4 A,4 ^G,4 | C8 B,8 | A,4 A4 G4 E4- | E4 (F6 E2 D4) | E16 | ^F16 | %22
w: e- ru- lus,||ad- huc pu-|e- ru-|lus mul- tis je\-|* ju\- * *|ni-|is,|
 z4 E4 E4 E4 | D8 C8 | (B,4 E8 D2 C2 | D8 E4) E4 | E4 D4 E6 D2 | C4 E8 D4 | E4 C4 D8 | E16- | E16 | %31
w: mul- tis je-|ju- ni-|is, * * *|* * mul-|tis je- ju- ni-|is ma- ce-|ra- bat cor-|pus,||
 z4 E6 D2 (C4- | C4 D4 E4) C4 | D16 | ^C16 |] %35
w: ma- ce- ra\-|* * * bat|cor-|pus.|
V:3
 E16 | G8 A4 (c4- | c2 B2 A4 G4) E4 | F4 E8 c4- | c2 B2 (A6 G2 F2 E2) | %5
w: Be-|a- tus Ni\-|* * * * co-|la- us, Ni\-|* co- la\- * * *|
[M:4/2][K:treble-8] (D4 F4 G4 A4- | A4 F4 G8 | A8 B8) | A4 A4 B8 | c8 A8 | B8 c8 | B4 c8 A4 | %12
w: |||us, be- a-|tus Ni-|co- la-|us, Ni- co-|
 (d6 c2 B8) | A4 c4 c4 c4 | B4 A4 B8 | A4 (F6 G2 A2 B2 | c8) B8 | A8 z8 | z4 A4 B8 | c8 (d8- | %20
w: la\- * *|us ad- huc pu-|e- ru- lus,|pu- e\- * * *|* ru-|lus|mul- tis|je- ju\-|
 d4 ^c2 B2) c8 | d16 | z16 | z4 A4 A4 A4 | G8 F8- | F8 E4 G4 | A8 B8 | A4 E8 F4 | E4 E4 F8 | %29
w: * * * ni-|is,||mul- tis je-|ju- ni\-|* is, je-|ju- ni-|is ma- ce-|ra- bat cor-|
 E8 z4 c4 | B4 G4 A8 | B8 A4 E4- | E4 F4 E4 E4 | F16 | E16 |] %35
w: pus, ma-|ce- ra- bat|cor- pus, ma\-|* ce- ra- bat|cor-|pus.|
V:4
 z16 | z16 | z16 | A,,16 | C,8 D,4 F,4- |[M:4/2] (F,2 E,2 D,4 C,4) A,,4 | (D,8 C,2 D,2 E,2 D,E, | %7
w: |||Be-|a- tus Ni\-|* * * * co-|la\- * * * * *|
 F,8 E,8 | A,,8) E,8 | z16 | E,8 A,8 | E,8 F,8 | D,8 E,8 | A,,4 A,4 A,4 A,4 | G,4 F,4 E,8 | %15
w: |* us,||be- a-|tus Ni-|co- la-|us ad- huc pu-|e- ru- lus,|
 z4 D,4 D,4 D,4 | (C,4 A,,4) E,8 | A,,8 z4 E,4 | F,8 G,8 | A,8 _B,8 | A,16 | z4 D,4 D,4 D,4 | %22
w: ad- huc pu-|e\- * ru-|lus mul-|tis je-|ju- ni-|is,|mul- tis je-|
 (A,,2 B,,2 C,2 D,2 E,4) C,4 | (D,8 A,,2 B,,2 C,2 D,2 | E,8) z4 A,4 | A,4 A,4 G,8 | F,8 E,8 | %27
w: ju\- * * * * ni-|is, * * * *|* mul-|tis je- ju-|ni- is|
 z4 A,,8 D,4 | C,4 A,,4 D,8 | A,,4 E,8 A,4 | G,4 E,4 A,8 | E,8 z4 A,,4- | A,,4 D,4 C,4 A,,4 | %33
w: ma- ce-|ra- bat cor-|pus, ma- ce-|ra- bat cor-|pus, ma\-|* ce- ra- bat|
 D,16 | A,,16 |] %35
w: cor-|pus.|

